X: 1935
T: Arrane Ny Fee
R: reel
M: 4/4
K: Dmajor
f>d|d2 A2 A2 f>d|d2 A2 A2 d>e|f2 d2 e2 c2|A2 d2 d2 f>d|
d2 A2 A2 f>d|d2 A2 A2 d>e|f2 d2 e2 c2|A2 d2 d2 f>g|
a2 f2 g2 e2|f2 d2 e2 f>g|a2 f2 gf ed|A2 d2 d2 f>g|
a2 f2 g2 e2|f2 d2 e2 f>g|a2 a>b ag fe A2 d2 d2||

